src/images/cake.svg

<svg xmlns="http://www.w3.org/2000/svg" xml:space="preserve" id="Слой_1" x="0" y="0" style="enable-background:new 0 0 105.6 88.7" version="1.1" viewBox="0 0 105.6 88.7"><style>.st0{fill:#264f26}</style><g id="Слой_2_00000068663338377666960160000008954671491852081283_"><g id="Слой_1-2"><path d="M96.9 88.2c-19.5.2-58.7.4-78.1.4h-.4v-.4l-.1-38.9v-.5h.5c19.5 0 58.7.1 78.1.2h.3v.3l-.3 38.9zm0 0-.3-38.9.3.3c-19.5.1-58.7.2-78.1.2l.5-.5-.1 38.9-.4-.4c19.4 0 58.6.3 78.1.4z" class="st0"/><path d="M27.7 49.3c-.2-10.1-.3-20.2-.4-30.4h.4l15.1-.1c13.4-.1 31.8 0 45.2.1h.4v.4c-.1 7.5-.2 22.5-.4 30-.2-7.5-.3-22.5-.4-30l.4.4c-13.4.1-31.8.1-45.2.1l-15.1-.1.4-.4c-.1 10.1-.2 20.1-.4 30z" class="st0"/><path d="M37.3 19.4C37.1 13 37 6.5 36.9.1c7-.1 14 0 20.9-.1s13.9 0 20.9.1c-.1 6.4-.2 12.8-.4 19.2-.2-6.2-.3-12.5-.3-18.8l.4.4C64.7 1 51 1 37.4.9l.3-.4c-.1 6.3-.2 12.6-.4 18.9zM27.7 42.1c14.5-.7 29.2-.7 43.7 0-14.6.7-29.2.7-43.7 0zM71.3 42c-3.9-.6-13.8-4-8.3-9 5.8-4.7 8.3 4.8 8.3 9zm0 0c-.8-3.3-2.8-12.4-7.6-8.3-4.8 3.9 4.8 7.1 7.6 8.3zM71.6 42.3c-2.2 2.1-8.4 5.5-7.3 9-2.6-3.8 4.3-8.1 7.3-9z" class="st0"/><path d="M74.1 42c0 2.6-2.9 2.5-3 0 .1-2.5 3-2.6 3 0zm0 0c-.1-1.8-2-2-2 0s2 1.8 2 0z" class="st0"/><path d="M71.3 42.1c-1.8-.8-7.3-3.8-4.9-6.1 2.8-1.8 4.6 4.2 4.9 6.1zm0 0c-.7-1-2.9-6.3-4.3-5.4-1.1 1.2 3.5 4.5 4.3 5.4zM74.4 42c2.8-1.2 12.4-4.4 7.6-8.3-4.8-4.1-6.8 5-7.6 8.3zm0 0c.1-4.2 2.5-13.7 8.3-9 5.5 5-4.4 8.4-8.3 9zM74.1 42.3c3 .9 9.9 5.2 7.3 9 1.2-3.5-5-6.9-7.3-9z" class="st0"/><path d="M74.4 42.1c.9-.9 5.5-4.2 4.3-5.4-1.3-.8-3.6 4.4-4.3 5.4zm0 0c.4-1.9 2.1-7.9 4.9-6.1 2.4 2.3-3.1 5.4-4.9 6.1z" class="st0"/><path d="M74.1 42c4.6-.7 9.3-.7 13.9 0-4.6.7-9.3.7-13.9 0zM37.3 14c13.6-.7 27.1-.7 40.7 0-13.5.7-27.1.7-40.7 0zM18.8 54.8c5.1 5.9 11.2 6.5 17.4 1.8.8-.6 1.5-1.2 2.3-1.8-.6.7-1.3 1.4-2 2.2-5.8 5.6-13.7 4.9-17.7-2.2z" class="st0"/><path d="M38.2 54.8c5.1 5.9 11.2 6.5 17.4 1.8.8-.6 1.5-1.2 2.3-1.8-.6.7-1.3 1.4-2 2.2-5.7 5.6-13.6 4.9-17.7-2.2z" class="st0"/><path d="M57.7 54.8c5.2 5.9 11.2 6.5 17.4 1.8.8-.6 1.5-1.2 2.3-1.8-.6.7-1.3 1.4-2 2.2-5.8 5.6-13.6 4.9-17.7-2.2z" class="st0"/><path d="M77.2 54.8c5.2 5.9 11.2 6.5 17.4 1.8.8-.6 1.5-1.2 2.3-1.8-.6.7-1.3 1.4-2 2.2-5.8 5.6-13.7 4.9-17.7-2.2zM18.8 58.9c5.1 5.9 11.2 6.5 17.4 1.8.8-.6 1.5-1.2 2.3-1.8-.6.7-1.3 1.4-2 2.2-5.7 5.6-13.6 4.9-17.7-2.2z" class="st0"/><path d="M38.2 58.9c5.1 5.9 11.2 6.5 17.4 1.8.8-.6 1.5-1.2 2.3-1.8-.6.7-1.3 1.4-2 2.2-5.7 5.6-13.6 4.9-17.7-2.2z" class="st0"/><path d="M57.7 58.9c5.2 5.9 11.2 6.5 17.4 1.8.8-.6 1.5-1.2 2.3-1.8-.6.7-1.3 1.4-2 2.2-5.7 5.6-13.6 4.9-17.7-2.2z" class="st0"/><path d="M77.2 58.9c5.2 5.9 11.2 6.5 17.4 1.8.8-.6 1.5-1.2 2.3-1.8-.6.7-1.3 1.4-2 2.2-5.7 5.6-13.6 4.9-17.7-2.2zM18.8 73.4c5.1 5.9 11.2 6.5 17.4 1.8.8-.6 1.5-1.2 2.3-1.8-.6.7-1.3 1.4-2 2.2-5.8 5.6-13.7 4.9-17.7-2.2z" class="st0"/><path d="M38.2 73.4c5.1 5.9 11.2 6.5 17.4 1.8.8-.6 1.5-1.2 2.3-1.8-.6.7-1.3 1.4-2 2.2-5.7 5.6-13.6 4.9-17.7-2.2z" class="st0"/><path d="M57.7 73.4c5.2 5.9 11.2 6.5 17.4 1.8.8-.6 1.5-1.2 2.3-1.8-.6.7-1.3 1.4-2 2.2-5.8 5.6-13.6 4.9-17.7-2.2z" class="st0"/><path d="M77.2 73.4c5.2 5.9 11.2 6.5 17.4 1.8.8-.6 1.5-1.2 2.3-1.8-.6.7-1.3 1.4-2 2.2-5.8 5.6-13.7 4.9-17.7-2.2zM18.8 77.5c5.1 5.9 11.2 6.5 17.4 1.8.8-.6 1.5-1.2 2.3-1.8-.6.7-1.3 1.4-2 2.2-5.8 5.5-13.7 4.8-17.7-2.2z" class="st0"/><path d="M38.2 77.5c5.1 5.9 11.2 6.5 17.4 1.8.8-.6 1.5-1.2 2.3-1.8-.6.7-1.3 1.4-2 2.2-5.7 5.5-13.6 4.8-17.7-2.2z" class="st0"/><path d="M57.7 77.5c5.2 5.9 11.2 6.5 17.4 1.8.8-.6 1.5-1.2 2.3-1.8-.6.7-1.3 1.4-2 2.2-5.8 5.5-13.6 4.8-17.7-2.2z" class="st0"/><path d="M77.2 77.5c5.2 5.9 11.2 6.5 17.4 1.8.8-.6 1.5-1.2 2.3-1.8-.6.7-1.3 1.4-2 2.2-5.8 5.5-13.7 4.8-17.7-2.2zM38.3 25.5c0 .7-.1 1.4-.4 2.1-.6 1-1.7.3-2-.6-1.5-3.1 2.3-6.6 2.4-1.5zm0 0c0-.7-.3-2.1-1.1-2-.6.3-.6 1.4-.6 2s0 1.8.6 2.1c.7-.1 1.1-1.4 1.1-2.1z" class="st0"/><path d="M35.1 25.9c.9.6 2.4 2.6.4 2.9-1.6.1-4.1-2.1-3.1-3.7 1-.6 2 .3 2.7.8zm0 0c-.5-.5-1.8-1.1-2.3-.5-.2.9 2.3 3 3.2 2.6.5-.5-.3-1.6-.9-2.1z" class="st0"/><path d="M33.4 28.6c.9-.1 2.2-.4 2.7.6.1 1.9-3.2 2.6-4.5 1.7-1.5-1.2.7-2.2 1.8-2.3zm0 0c-.7.1-2 .7-1.8 1.4.6.7 3.8.2 4-.7-.1-.7-1.5-.8-2.2-.7z" class="st0"/><path d="M34.4 31.6c.5-.7 1.1-2 2.2-1.7 1.6 1.2-.1 4.1-1.6 4.5-1.9.5-1.2-1.9-.6-2.8zm0 0c-.3.6-.8 2-.1 2.3.9 0 2.5-2.8 2-3.6-.6-.3-1.6.7-1.9 1.3z" class="st0"/><path d="M37.4 32.8c-.2-.9-.8-2.1.2-2.8 2-.6 3.7 4 1.8 4.8-1.2.2-1.7-1.1-2-2zm0 0c.2.6 1 1.8 1.7 1.5.6-.7-.5-3.7-1.4-3.9-.7.4-.6 1.8-.3 2.4z" class="st0"/><path d="M40.2 31.3c-.8-.4-2.1-.8-2-1.9.8-2 5.4-.3 4.8 1.8-.7.9-2 .4-2.8.1zm0 0c.9.5 3.5.1 1.7-1.1-.8-.5-2.4-1.2-3.2-.7-.4.8.8 1.6 1.5 1.8z" class="st0"/><path d="M40.8 28.2c-.8.4-2 1.1-2.8.3-1-1.9 3.3-4.3 4.4-2.5.4 1.1-.8 1.7-1.6 2.2zm0 0c.6-.3 1.6-1.3 1.2-2-.8-.5-3.6 1.1-3.6 2.1.5.7 1.8.3 2.4-.1z" class="st0"/><path d="M38.5 29.1c0 .9-.7 1.5-1.5 1.5s-1.5-.7-1.5-1.5.7-1.5 1.5-1.5 1.5.6 1.5 1.5zm0 0c0-.6-.5-1-1-1s-1 .5-1 1 .5 1 1 1 1-.5 1-1zM50.7 30.1c0 .7-.1 1.4-.4 2-.6 1-1.7.3-2-.6-1.4-3 2.3-6.5 2.4-1.4zm0 0c0-.7-.3-2.1-1.1-2.1-.6.3-.6 1.4-.6 2.1s0 1.8.6 2c.8 0 1.1-1.3 1.1-2z" class="st0"/><path d="M47.6 30.6c.7.6 1.7 1.5 1.2 2.5-1.5 1.6-5.2-1.6-3.9-3.3.9-.7 2 .2 2.7.8zm0 0c-.5-.4-1.8-1.1-2.3-.5-.2.9 2.3 3 3.1 2.6.6-.5-.3-1.7-.8-2.1z" class="st0"/><path d="M45.9 33.3c.9-.1 2.2-.4 2.7.6.3 2.1-4.6 3-5 .9.1-1.1 1.5-1.3 2.3-1.5zm0 0c-.7.1-2 .7-1.8 1.4.6.7 3.8.2 4-.7-.1-.8-1.6-.9-2.2-.7z" class="st0"/><path d="M46.9 36.3c.5-.8 1.2-2 2.2-1.7 1.6 1.2-.1 4.1-1.6 4.5-1.9.5-1.2-1.9-.6-2.8zm0 0c-.3.6-.8 2-.1 2.3.9 0 2.5-2.8 2-3.6-.6-.3-1.6.7-1.9 1.3z" class="st0"/><path d="M49.8 37.5c-.3-.9-.8-2.1.2-2.8 2-.6 3.7 4 1.8 4.8-1.2.1-1.6-1.2-2-2zm0 0c.2.7 1 1.8 1.7 1.5.6-.7-.5-3.7-1.4-3.9-.7.3-.5 1.7-.3 2.4z" class="st0"/><path d="M52.6 36c-.8-.3-2.1-.8-2-1.9.8-2 5.4-.3 4.8 1.8-.6.9-1.9.4-2.8.1zm0 0c.6.2 2.1.4 2.3-.3-.1-.9-3.2-2-3.9-1.4-.2.7 1 1.5 1.6 1.7z" class="st0"/><path d="M53.3 32.9c-.8.4-2 1.1-2.8.3-1-1.9 3.3-4.4 4.4-2.6.4 1.1-.9 1.8-1.6 2.3zm0 0c.6-.3 1.6-1.3 1.2-2-.8-.5-3.6 1.1-3.5 2.1.4.7 1.7.3 2.3-.1z" class="st0"/><path d="M50.9 33.7c0 .9-.7 1.5-1.5 1.5s-1.5-.7-1.5-1.5.7-1.5 1.5-1.5 1.5.7 1.5 1.5zm0 0c0-.6-.5-1-1-1s-1 .5-1 1 .5 1 1 1 1-.4 1-1zM88 48.8c.8-3.2 2.7-9.3 6.7-9.4 1.4 0 2.6 1.1 2.8 2.5-.4 3.3-6.7 5.8-9.5 6.9zm0 0c2-1.1 3.9-2.2 5.7-3.5 1.1-.9 2.7-1.9 2.9-3.4 0-.4-.3-.8-.6-1-3.7-2.6-6.8 5.3-8 7.9z" class="st0"/><path d="M96.9 26.8c-3.7 6.3-6.7 13-8.9 20 .9-7.5 4-14.4 8.9-20z" class="st0"/><path d="M91.3 39.1c-2.3-4.2-5.8-12.7.4-15.2.7-.2 1.4-.1 1.9.4 2.3 3-1 11.5-2.3 14.8zm0 0c.5-2.6 3.6-12.7 1.4-14.3-6.2.7-2.9 10.6-1.4 14.3zM96.6 27.1c.3-2.8 2.5-14.7 7-10 4.2 5-2.7 9.1-7 10zm0 0c2.8-1.4 6.8-3 7.4-6.5.1-1.3-.9-3.3-2.2-3.7-2.7.3-4.4 7.8-5.2 10.2z" class="st0"/><path d="M93.1 34.4c1.9-4.3 7-8.6 11.8-5.4 4 3.6-9.8 5.2-11.8 5.4zm0 0c1.1-.4 13.4-3 11.2-4.6-4.3-2.8-8.8 1.1-11.2 4.6zM17.6 87.7c-1.2-2.5-4.3-10.4-7.9-7.9-.4.2-.6.6-.6 1 .2 1.5 1.7 2.5 2.9 3.4 1.7 1.3 3.6 2.5 5.6 3.5zm0 0c-2.8-1.1-9.1-3.5-9.5-6.9.2-1.4 1.4-2.5 2.8-2.5 4 .1 5.9 6.3 6.7 9.4z" class="st0"/><path d="M8.7 65.8c4.9 5.6 8 12.6 8.9 20-2.2-7-5.2-13.7-8.9-20z" class="st0"/><path d="M14.3 78.1c1.4-3.9 4.6-12.1-.7-14.2-.5-.1-.9-.1-1.2.4-.7 1.8-.2 3.9.1 5.8.5 2.7 1.1 5.3 1.8 8zm0 0C13 74.8 9.7 66.2 12 63.3c.5-.4 1.3-.6 1.9-.3 6.2 2.4 2.7 10.9.4 15.1zM9 66.1c-.8-2.3-2.6-9.8-5.2-10.1-1.3.4-2.3 2.4-2.2 3.7.7 3.3 4.6 5 7.4 6.4zm0 0c-4.4-.9-11.2-4.9-7-10 4.5-4.8 6.7 7.1 7 10z" class="st0"/><path d="M12.5 73.3c-2.4-3.5-6.9-7.4-11.2-4.6-2.3 1.6 10 4.3 11.2 4.6zm0 0c-2-.1-15.8-1.8-11.8-5.4 4.7-3.1 9.8 1.1 11.8 5.4z" class="st0"/></g></g></svg>

<?xml version="1.0" encoding="utf-8"?>
<!-- Generator: Adobe Illustrator 27.0.0, SVG Export Plug-In . SVG Version: 6.00 Build 0)  -->
<svg version="1.1" id="Слой_1" xmlns="http://www.w3.org/2000/svg" xmlns:xlink="http://www.w3.org/1999/xlink" x="0px" y="0px"
	 viewBox="0 0 105.6 88.7" style="enable-background:new 0 0 105.6 88.7;" xml:space="preserve">
<style type="text/css">
	.st0{fill:#264F26;}
</style>
<g id="Слой_2_00000068663338377666960160000008954671491852081283_">
	<g id="Слой_1-2">
		<path class="st0" d="M96.9,88.2c-19.5,0.2-58.7,0.4-78.1,0.4h-0.4v-0.4l-0.1-38.9v-0.5h0.5c19.5,0,58.7,0.1,78.1,0.2h0.3v0.3
			L96.9,88.2z M96.9,88.2l-0.3-38.9l0.3,0.3c-19.5,0.1-58.7,0.2-78.1,0.2l0.5-0.5l-0.1,38.9l-0.4-0.4C38.2,87.8,77.4,88.1,96.9,88.2
			z"/>
		<path class="st0" d="M27.7,49.3c-0.2-10.1-0.3-20.2-0.4-30.4h0.4l15.1-0.1c13.4-0.1,31.8,0,45.2,0.1h0.4v0.4
			c-0.1,7.5-0.2,22.5-0.4,30c-0.2-7.5-0.3-22.5-0.4-30l0.4,0.4c-13.4,0.1-31.8,0.1-45.2,0.1l-15.1-0.1l0.4-0.4
			C28,29.4,27.9,39.4,27.7,49.3L27.7,49.3z"/>
		<path class="st0" d="M37.3,19.4C37.1,13,37,6.5,36.9,0.1C43.9,0,50.9,0.1,57.8,0s13.9,0,20.9,0.1c-0.1,6.4-0.2,12.8-0.4,19.2
			C78.1,13.1,78,6.8,78,0.5l0.4,0.4C64.7,1,51,1,37.4,0.9l0.3-0.4C37.6,6.8,37.5,13.1,37.3,19.4z"/>
		<path class="st0" d="M27.7,42.1c14.5-0.7,29.2-0.7,43.7,0C56.8,42.8,42.2,42.8,27.7,42.1z"/>
		<path class="st0" d="M71.3,42c-3.9-0.6-13.8-4-8.3-9C68.8,28.3,71.3,37.8,71.3,42z M71.3,42c-0.8-3.3-2.8-12.4-7.6-8.3
			C58.9,37.6,68.5,40.8,71.3,42z"/>
		<path class="st0" d="M71.6,42.3c-2.2,2.1-8.4,5.5-7.3,9C61.7,47.5,68.6,43.2,71.6,42.3z"/>
		<path class="st0" d="M74.1,42c0,2.6-2.9,2.5-3,0C71.2,39.5,74.1,39.4,74.1,42z M74.1,42c-0.1-1.8-2-2-2,0S74.1,43.8,74.1,42z"/>
		<path class="st0" d="M71.3,42.1c-1.8-0.8-7.3-3.8-4.9-6.1C69.2,34.2,71,40.2,71.3,42.1z M71.3,42.1c-0.7-1-2.9-6.3-4.3-5.4
			C65.9,37.9,70.5,41.2,71.3,42.1z"/>
		<path class="st0" d="M74.4,42c2.8-1.2,12.4-4.4,7.6-8.3C77.2,29.6,75.2,38.7,74.4,42z M74.4,42c0.1-4.2,2.5-13.7,8.3-9
			C88.2,38,78.3,41.4,74.4,42z"/>
		<path class="st0" d="M74.1,42.3c3,0.9,9.9,5.2,7.3,9C82.6,47.8,76.4,44.4,74.1,42.3z"/>
		<path class="st0" d="M74.4,42.1c0.9-0.9,5.5-4.2,4.3-5.4C77.4,35.9,75.1,41.1,74.4,42.1z M74.4,42.1c0.4-1.9,2.1-7.9,4.9-6.1
			C81.7,38.3,76.2,41.4,74.4,42.1z"/>
		<path class="st0" d="M74.1,42c4.6-0.7,9.3-0.7,13.9,0C83.4,42.7,78.7,42.7,74.1,42L74.1,42z"/>
		<path class="st0" d="M37.3,14c13.6-0.7,27.1-0.7,40.7,0C64.5,14.7,50.9,14.7,37.3,14L37.3,14z"/>
		<path class="st0" d="M18.8,54.8c5.1,5.9,11.2,6.5,17.4,1.8c0.8-0.6,1.5-1.2,2.3-1.8c-0.6,0.7-1.3,1.4-2,2.2
			C30.7,62.6,22.8,61.9,18.8,54.8L18.8,54.8z"/>
		<path class="st0" d="M38.2,54.8c5.1,5.9,11.2,6.5,17.4,1.8c0.8-0.6,1.5-1.2,2.3-1.8c-0.6,0.7-1.3,1.4-2,2.2
			C50.2,62.6,42.3,61.9,38.2,54.8L38.2,54.8z"/>
		<path class="st0" d="M57.7,54.8c5.2,5.9,11.2,6.5,17.4,1.8c0.8-0.6,1.5-1.2,2.3-1.8c-0.6,0.7-1.3,1.4-2,2.2
			C69.6,62.6,61.8,61.9,57.7,54.8L57.7,54.8z"/>
		<path class="st0" d="M77.2,54.8c5.2,5.9,11.2,6.5,17.4,1.8c0.8-0.6,1.5-1.2,2.3-1.8c-0.6,0.7-1.3,1.4-2,2.2
			C89.1,62.6,81.2,61.9,77.2,54.8L77.2,54.8z"/>
		<path class="st0" d="M18.8,58.9c5.1,5.9,11.2,6.5,17.4,1.8c0.8-0.6,1.5-1.2,2.3-1.8c-0.6,0.7-1.3,1.4-2,2.2
			C30.8,66.7,22.9,66,18.8,58.9z"/>
		<path class="st0" d="M38.2,58.9c5.1,5.9,11.2,6.5,17.4,1.8c0.8-0.6,1.5-1.2,2.3-1.8c-0.6,0.7-1.3,1.4-2,2.2
			C50.2,66.7,42.3,66,38.2,58.9z"/>
		<path class="st0" d="M57.7,58.9c5.2,5.9,11.2,6.5,17.4,1.8c0.8-0.6,1.5-1.2,2.3-1.8c-0.6,0.7-1.3,1.4-2,2.2
			C69.7,66.7,61.8,66,57.7,58.9z"/>
		<path class="st0" d="M77.2,58.9c5.2,5.9,11.2,6.5,17.4,1.8c0.8-0.6,1.5-1.2,2.3-1.8c-0.6,0.7-1.3,1.4-2,2.2
			C89.2,66.7,81.3,66,77.2,58.9z"/>
		<path class="st0" d="M18.8,73.4c5.1,5.9,11.2,6.5,17.4,1.8c0.8-0.6,1.5-1.2,2.3-1.8c-0.6,0.7-1.3,1.4-2,2.2
			C30.7,81.2,22.8,80.5,18.8,73.4L18.8,73.4z"/>
		<path class="st0" d="M38.2,73.4c5.1,5.9,11.2,6.5,17.4,1.8c0.8-0.6,1.5-1.2,2.3-1.8c-0.6,0.7-1.3,1.4-2,2.2
			C50.2,81.2,42.3,80.5,38.2,73.4L38.2,73.4z"/>
		<path class="st0" d="M57.7,73.4c5.2,5.9,11.2,6.5,17.4,1.8c0.8-0.6,1.5-1.2,2.3-1.8c-0.6,0.7-1.3,1.4-2,2.2
			C69.6,81.2,61.8,80.5,57.7,73.4L57.7,73.4z"/>
		<path class="st0" d="M77.2,73.4c5.2,5.9,11.2,6.5,17.4,1.8c0.8-0.6,1.5-1.2,2.3-1.8c-0.6,0.7-1.3,1.4-2,2.2
			C89.1,81.2,81.2,80.5,77.2,73.4L77.2,73.4z"/>
		<path class="st0" d="M18.8,77.5c5.1,5.9,11.2,6.5,17.4,1.8c0.8-0.6,1.5-1.2,2.3-1.8c-0.6,0.7-1.3,1.4-2,2.2
			C30.7,85.2,22.8,84.5,18.8,77.5L18.8,77.5z"/>
		<path class="st0" d="M38.2,77.5c5.1,5.9,11.2,6.5,17.4,1.8c0.8-0.6,1.5-1.2,2.3-1.8c-0.6,0.7-1.3,1.4-2,2.2
			C50.2,85.2,42.3,84.5,38.2,77.5L38.2,77.5z"/>
		<path class="st0" d="M57.7,77.5c5.2,5.9,11.2,6.5,17.4,1.8c0.8-0.6,1.5-1.2,2.3-1.8c-0.6,0.7-1.3,1.4-2,2.2
			C69.6,85.2,61.8,84.5,57.7,77.5L57.7,77.5z"/>
		<path class="st0" d="M77.2,77.5c5.2,5.9,11.2,6.5,17.4,1.8c0.8-0.6,1.5-1.2,2.3-1.8c-0.6,0.7-1.3,1.4-2,2.2
			C89.1,85.2,81.2,84.5,77.2,77.5L77.2,77.5z"/>
		<path class="st0" d="M38.3,25.5c0,0.7-0.1,1.4-0.4,2.1c-0.6,1-1.7,0.3-2-0.6C34.4,23.9,38.2,20.4,38.3,25.5L38.3,25.5z M38.3,25.5
			c0-0.7-0.3-2.1-1.1-2c-0.6,0.3-0.6,1.4-0.6,2s0,1.8,0.6,2.1C37.9,27.5,38.3,26.2,38.3,25.5z"/>
		<path class="st0" d="M35.1,25.9c0.9,0.6,2.4,2.6,0.4,2.9c-1.6,0.1-4.1-2.1-3.1-3.7C33.4,24.5,34.4,25.4,35.1,25.9z M35.1,25.9
			c-0.5-0.5-1.8-1.1-2.3-0.5c-0.2,0.9,2.3,3,3.2,2.6C36.5,27.5,35.7,26.4,35.1,25.9z"/>
		<path class="st0" d="M33.4,28.6c0.9-0.1,2.2-0.4,2.7,0.6c0.1,1.9-3.2,2.6-4.5,1.7C30.1,29.7,32.3,28.7,33.4,28.6z M33.4,28.6
			c-0.7,0.1-2,0.7-1.8,1.4c0.6,0.7,3.8,0.2,4-0.7C35.5,28.6,34.1,28.5,33.4,28.6L33.4,28.6z"/>
		<path class="st0" d="M34.4,31.6c0.5-0.7,1.1-2,2.2-1.7c1.6,1.2-0.1,4.1-1.6,4.5C33.1,34.9,33.8,32.5,34.4,31.6z M34.4,31.6
			c-0.3,0.6-0.8,2-0.1,2.3c0.9,0,2.5-2.8,2-3.6C35.7,30,34.7,31,34.4,31.6L34.4,31.6z"/>
		<path class="st0" d="M37.4,32.8c-0.2-0.9-0.8-2.1,0.2-2.8c2-0.6,3.7,4,1.8,4.8C38.2,35,37.7,33.7,37.4,32.8L37.4,32.8z M37.4,32.8
			c0.2,0.6,1,1.8,1.7,1.5c0.6-0.7-0.5-3.7-1.4-3.9C37,30.8,37.1,32.2,37.4,32.8z"/>
		<path class="st0" d="M40.2,31.3c-0.8-0.4-2.1-0.8-2-1.9c0.8-2,5.4-0.3,4.8,1.8C42.3,32.1,41,31.6,40.2,31.3L40.2,31.3z M40.2,31.3
			c0.9,0.5,3.5,0.1,1.7-1.1c-0.8-0.5-2.4-1.2-3.2-0.7C38.3,30.3,39.5,31.1,40.2,31.3z"/>
		<path class="st0" d="M40.8,28.2c-0.8,0.4-2,1.1-2.8,0.3c-1-1.9,3.3-4.3,4.4-2.5C42.8,27.1,41.6,27.7,40.8,28.2z M40.8,28.2
			c0.6-0.3,1.6-1.3,1.2-2c-0.8-0.5-3.6,1.1-3.6,2.1C38.9,29,40.2,28.6,40.8,28.2L40.8,28.2z"/>
		<path class="st0" d="M38.5,29.1c0,0.9-0.7,1.5-1.5,1.5s-1.5-0.7-1.5-1.5s0.7-1.5,1.5-1.5S38.5,28.2,38.5,29.1z M38.5,29.1
			c0-0.6-0.5-1-1-1s-1,0.5-1,1s0.5,1,1,1S38.5,29.6,38.5,29.1z"/>
		<path class="st0" d="M50.7,30.1c0,0.7-0.1,1.4-0.4,2c-0.6,1-1.7,0.3-2-0.6C46.9,28.5,50.6,25,50.7,30.1L50.7,30.1z M50.7,30.1
			c0-0.7-0.3-2.1-1.1-2.1c-0.6,0.3-0.6,1.4-0.6,2.1s0,1.8,0.6,2C50.4,32.1,50.7,30.8,50.7,30.1z"/>
		<path class="st0" d="M47.6,30.6c0.7,0.6,1.7,1.5,1.2,2.5c-1.5,1.6-5.2-1.6-3.9-3.3C45.8,29.1,46.9,30,47.6,30.6z M47.6,30.6
			c-0.5-0.4-1.8-1.1-2.3-0.5c-0.2,0.9,2.3,3,3.1,2.6C49,32.2,48.1,31,47.6,30.6z"/>
		<path class="st0" d="M45.9,33.3c0.9-0.1,2.2-0.4,2.7,0.6c0.3,2.1-4.6,3-5,0.9C43.7,33.7,45.1,33.5,45.9,33.3L45.9,33.3z
			 M45.9,33.3c-0.7,0.1-2,0.7-1.8,1.4c0.6,0.7,3.8,0.2,4-0.7C48,33.2,46.5,33.1,45.9,33.3L45.9,33.3z"/>
		<path class="st0" d="M46.9,36.3c0.5-0.8,1.2-2,2.2-1.7c1.6,1.2-0.1,4.1-1.6,4.5C45.6,39.6,46.3,37.2,46.9,36.3z M46.9,36.3
			c-0.3,0.6-0.8,2-0.1,2.3c0.9,0,2.5-2.8,2-3.6C48.2,34.7,47.2,35.7,46.9,36.3L46.9,36.3z"/>
		<path class="st0" d="M49.8,37.5c-0.3-0.9-0.8-2.1,0.2-2.8c2-0.6,3.7,4,1.8,4.8C50.6,39.6,50.2,38.3,49.8,37.5L49.8,37.5z
			 M49.8,37.5c0.2,0.7,1,1.8,1.7,1.5c0.6-0.7-0.5-3.7-1.4-3.9C49.4,35.4,49.6,36.8,49.8,37.5z"/>
		<path class="st0" d="M52.6,36c-0.8-0.3-2.1-0.8-2-1.9c0.8-2,5.4-0.3,4.8,1.8C54.8,36.8,53.5,36.3,52.6,36L52.6,36z M52.6,36
			c0.6,0.2,2.1,0.4,2.3-0.3c-0.1-0.9-3.2-2-3.9-1.4C50.8,35,52,35.8,52.6,36z"/>
		<path class="st0" d="M53.3,32.9c-0.8,0.4-2,1.1-2.8,0.3c-1-1.9,3.3-4.4,4.4-2.6C55.3,31.7,54,32.4,53.3,32.9z M53.3,32.9
			c0.6-0.3,1.6-1.3,1.2-2C53.7,30.4,50.9,32,51,33C51.4,33.7,52.7,33.3,53.3,32.9L53.3,32.9z"/>
		<path class="st0" d="M50.9,33.7c0,0.9-0.7,1.5-1.5,1.5s-1.5-0.7-1.5-1.5s0.7-1.5,1.5-1.5S50.9,32.9,50.9,33.7z M50.9,33.7
			c0-0.6-0.5-1-1-1s-1,0.5-1,1s0.5,1,1,1S50.9,34.3,50.9,33.7z"/>
		<path class="st0" d="M88,48.8c0.8-3.2,2.7-9.3,6.7-9.4c1.4,0,2.6,1.1,2.8,2.5C97.1,45.2,90.8,47.7,88,48.8z M88,48.8
			c2-1.1,3.9-2.2,5.7-3.5c1.1-0.9,2.7-1.9,2.9-3.4c0-0.4-0.3-0.8-0.6-1C92.3,38.3,89.2,46.2,88,48.8L88,48.8z"/>
		<path class="st0" d="M96.9,26.8c-3.7,6.3-6.7,13-8.9,20C88.9,39.3,92,32.4,96.9,26.8z"/>
		<path class="st0" d="M91.3,39.1c-2.3-4.2-5.8-12.7,0.4-15.2c0.7-0.2,1.4-0.1,1.9,0.4C95.9,27.3,92.6,35.8,91.3,39.1z M91.3,39.1
			c0.5-2.6,3.6-12.7,1.4-14.3C86.5,25.5,89.8,35.4,91.3,39.1z"/>
		<path class="st0" d="M96.6,27.1c0.3-2.8,2.5-14.7,7-10C107.8,22.1,100.9,26.2,96.6,27.1z M96.6,27.1c2.8-1.4,6.8-3,7.4-6.5
			c0.1-1.3-0.9-3.3-2.2-3.7C99.1,17.2,97.4,24.7,96.6,27.1z"/>
		<path class="st0" d="M93.1,34.4c1.9-4.3,7-8.6,11.8-5.4C108.9,32.6,95.1,34.2,93.1,34.4z M93.1,34.4c1.1-0.4,13.4-3,11.2-4.6
			C100,27,95.5,30.9,93.1,34.4z"/>
		<path class="st0" d="M17.6,87.7c-1.2-2.5-4.3-10.4-7.9-7.9c-0.4,0.2-0.6,0.6-0.6,1c0.2,1.5,1.7,2.5,2.9,3.4
			C13.7,85.5,15.6,86.7,17.6,87.7L17.6,87.7z M17.6,87.7c-2.8-1.1-9.1-3.5-9.5-6.9c0.2-1.4,1.4-2.5,2.8-2.5
			C14.9,78.4,16.8,84.6,17.6,87.7z"/>
		<path class="st0" d="M8.7,65.8c4.9,5.6,8,12.6,8.9,20C15.4,78.8,12.4,72.1,8.7,65.8z"/>
		<path class="st0" d="M14.3,78.1c1.4-3.9,4.6-12.1-0.7-14.2c-0.5-0.1-0.9-0.1-1.2,0.4c-0.7,1.8-0.2,3.9,0.1,5.8
			C13,72.8,13.6,75.4,14.3,78.1L14.3,78.1z M14.3,78.1C13,74.8,9.7,66.2,12,63.3c0.5-0.4,1.3-0.6,1.9-0.3
			C20.1,65.4,16.6,73.9,14.3,78.1L14.3,78.1z"/>
		<path class="st0" d="M9,66.1c-0.8-2.3-2.6-9.8-5.2-10.1c-1.3,0.4-2.3,2.4-2.2,3.7C2.3,63,6.2,64.7,9,66.1z M9,66.1
			c-4.4-0.9-11.2-4.9-7-10C6.5,51.3,8.7,63.2,9,66.1z"/>
		<path class="st0" d="M12.5,73.3c-2.4-3.5-6.9-7.4-11.2-4.6C-1,70.3,11.3,73,12.5,73.3z M12.5,73.3c-2-0.1-15.8-1.8-11.8-5.4
			C5.4,64.8,10.5,69,12.5,73.3z"/>
	</g>
</g>
</svg>
